X:1
T:Annunciation, SM
T:Annunciation, SM
T:Charles Ainslie Barry, 1875
T:Public Domain Courtesy of the Cyber Hymnal™
C:Charles Ainslie Barry, 1875
Z:Public Domain
Z:Courtesy of the Cyber Hymnal™
%%score ( 1 2 ) ( 3 4 )
L:1/8
Q:1/4=110
M:4/4
K:Eb
V:1 treble 
V:2 treble 
V:3 bass 
V:4 bass 
V:1
 [EB]2 | [EB]2 [Ec]2 A3 z G | [EG]6 [Ge]2 | [^Fd]2 [DB]2 [Ec]3 [DB] | [DB]6 [FB]2 | %5
 F2 [=EG]2 [FA]2 [Fc]2 | [FB]2 (cd) [Ee]2 E2 | [CE]2 (AG) [DF]3 [B,E] | [B,E]6 |] %9
V:2
 x2 | x4 E2 D2 x | x8 | x8 | x8 | F2 x6 | x2 F2 x (E_D) x | x2 C2 x4 | x6 |] %9
V:3
 [E,G,]2 | [E,G,]2 A,2 [F,C]2 [B,,B,]2 x | [E,B,]6 (CB,) | [D,=A,]2 [G,B,]2 (B,2 A,)[B,,F,] | %4
 [B,,F,]6 [B,D]2 | [A,C]2 [G,B,]2 [F,C]2 [E,A,]2 | B,2 A,2 [C,G,]2 [G,,B,]2 | %7
 [A,,A,]2 [F,,A,]2 [B,,A,]3 [E,G,] | [E,G,]6 |] %9
V:4
 x2 | x2 A,2 x5 | x6 C,2 | x4 F,3 x | x8 | x8 | (E,D,) (C,B,,) x4 | x8 | x6 |] %9

